svgs/sharp-regular/hourglass-start.svg

<svg xmlns="http://www.w3.org/2000/svg" viewBox="0 0 384 512"><!--! Font Awesome Pro 6.6.0 by @fontawesome - https://fontawesome.com License - https://fontawesome.com/license (Commercial License) Copyright 2024 Fonticons, Inc. --><path d="M0 512l24 0 336 0 24 0 0-48-24 0-8 0 0-72 0-9.9-7-7-119-119L345 137l7-7 0-9.9 0-72 8 0 24 0 0-48L360 0 24 0 0 0 0 48l24 0 8 0 0 72 0 9.9 7 7 119 119L39 375l-7 7 0 9.9 0 72-8 0L0 464l0 48zm80-48l0-62.1 112-112 112 112 0 62.1L80 464zM80 96l0-48 224 0 0 48L80 96z"/></svg>

<svg xmlns="http://www.w3.org/2000/svg" viewBox="0 0 384 512"><!--! Font Awesome Pro 6.5.2 by @fontawesome - https://fontawesome.com License - https://fontawesome.com/license (Commercial License) Copyright 2024 Fonticons, Inc. --><path d="M0 512H24 360h24V464H360h-8V392v-9.9l-7-7-119-119L345 137l7-7V120 48h8 24V0H360 24 0V48H24h8v72 9.9l7 7 119 119L39 375l-7 7V392v72H24 0v48zm80-48V401.9l112-112 112 112V464H80zM80 96V48H304V96H80z"/></svg>
